images/star1.svg

<svg width="89" height="16" viewBox="0 0 89 16" fill="none" xmlns="http://www.w3.org/2000/svg">
<g clip-path="url(#clip0_5594_39277)">
<path fill-rule="evenodd" clip-rule="evenodd" d="M7.94835 2.12663C7.9944 1.9806 8.08581 1.85306 8.20929 1.76252C8.33277 1.67198 8.4819 1.62317 8.63502 1.62317C8.78814 1.62317 8.93727 1.67198 9.06075 1.76252C9.18423 1.85306 9.27564 1.9806 9.32169 2.12663L10.5617 5.93996H14.5617C14.7203 5.93397 14.8765 5.98006 15.0064 6.07119C15.1363 6.16232 15.2329 6.29348 15.2812 6.44464C15.3296 6.5958 15.3272 6.75863 15.2743 6.90827C15.2214 7.0579 15.121 7.18611 14.9884 7.2733L11.7417 9.62663L12.9817 13.4466C13.0307 13.5921 13.032 13.7495 12.9852 13.8958C12.9385 14.042 12.8462 14.1695 12.7218 14.2596C12.5975 14.3497 12.4476 14.3977 12.2941 14.3966C12.1405 14.3954 11.9913 14.3452 11.8684 14.2533L8.61502 11.8733L5.36835 14.2333C5.24536 14.3252 5.0962 14.3754 4.94265 14.3766C4.7891 14.3777 4.63921 14.3297 4.51487 14.2396C4.39052 14.1495 4.29824 14.022 4.25149 13.8758C4.20474 13.7295 4.20598 13.5721 4.25502 13.4266L5.49502 9.60663L2.24835 7.2533C2.11574 7.16611 2.01532 7.0379 1.96243 6.88827C1.90955 6.73863 1.9071 6.5758 1.95547 6.42464C2.00384 6.27348 2.10037 6.14232 2.2303 6.05119C2.36023 5.96006 2.51643 5.91397 2.67502 5.91996H6.67502L7.94835 2.12663Z" fill="#FDBC15"/>
<path fill-rule="evenodd" clip-rule="evenodd" d="M25.9484 2.12663C25.9944 1.9806 26.0858 1.85306 26.2093 1.76252C26.3328 1.67198 26.4819 1.62317 26.635 1.62317C26.7881 1.62317 26.9373 1.67198 27.0607 1.76252C27.1842 1.85306 27.2756 1.9806 27.3217 2.12663L28.5617 5.93996H32.5617C32.7203 5.93397 32.8765 5.98006 33.0064 6.07119C33.1363 6.16232 33.2329 6.29348 33.2812 6.44464C33.3296 6.5958 33.3272 6.75863 33.2743 6.90827C33.2214 7.0579 33.121 7.18611 32.9884 7.2733L29.7417 9.62663L30.9817 13.4466C31.0307 13.5921 31.032 13.7495 30.9852 13.8958C30.9385 14.042 30.8462 14.1695 30.7218 14.2596C30.5975 14.3497 30.4476 14.3977 30.2941 14.3966C30.1405 14.3954 29.9913 14.3452 29.8684 14.2533L26.615 11.8733L23.3684 14.2333C23.2454 14.3252 23.0962 14.3754 22.9426 14.3766C22.7891 14.3777 22.6392 14.3297 22.5149 14.2396C22.3905 14.1495 22.2982 14.022 22.2515 13.8758C22.2047 13.7295 22.206 13.5721 22.255 13.4266L23.495 9.60663L20.2484 7.2533C20.1157 7.16611 20.0153 7.0379 19.9624 6.88827C19.9095 6.73863 19.9071 6.5758 19.9555 6.42464C20.0038 6.27348 20.1004 6.14232 20.2303 6.05119C20.3602 5.96006 20.5164 5.91397 20.675 5.91996H24.675L25.9484 2.12663Z" stroke="#D1D1D1" stroke-linecap="round" stroke-linejoin="round"/>
<path fill-rule="evenodd" clip-rule="evenodd" d="M43.9484 2.12663C43.9944 1.9806 44.0858 1.85306 44.2093 1.76252C44.3328 1.67198 44.4819 1.62317 44.635 1.62317C44.7881 1.62317 44.9373 1.67198 45.0607 1.76252C45.1842 1.85306 45.2756 1.9806 45.3217 2.12663L46.5617 5.93996H50.5617C50.7203 5.93397 50.8765 5.98006 51.0064 6.07119C51.1363 6.16232 51.2329 6.29348 51.2812 6.44464C51.3296 6.5958 51.3272 6.75863 51.2743 6.90827C51.2214 7.0579 51.121 7.18611 50.9884 7.2733L47.7417 9.62663L48.9817 13.4466C49.0307 13.5921 49.032 13.7495 48.9852 13.8958C48.9385 14.042 48.8462 14.1695 48.7218 14.2596C48.5975 14.3497 48.4476 14.3977 48.2941 14.3966C48.1405 14.3954 47.9913 14.3452 47.8684 14.2533L44.615 11.8733L41.3684 14.2333C41.2454 14.3252 41.0962 14.3754 40.9426 14.3766C40.7891 14.3777 40.6392 14.3297 40.5149 14.2396C40.3905 14.1495 40.2982 14.022 40.2515 13.8758C40.2047 13.7295 40.206 13.5721 40.255 13.4266L41.495 9.60663L38.2484 7.2533C38.1157 7.16611 38.0153 7.0379 37.9624 6.88827C37.9095 6.73863 37.9071 6.5758 37.9555 6.42464C38.0038 6.27348 38.1004 6.14232 38.2303 6.05119C38.3602 5.96006 38.5164 5.91397 38.675 5.91996H42.675L43.9484 2.12663Z" stroke="#D1D1D1" stroke-linecap="round" stroke-linejoin="round"/>
<path fill-rule="evenodd" clip-rule="evenodd" d="M61.9484 2.12663C61.9944 1.9806 62.0858 1.85306 62.2093 1.76252C62.3328 1.67198 62.4819 1.62317 62.635 1.62317C62.7881 1.62317 62.9373 1.67198 63.0607 1.76252C63.1842 1.85306 63.2756 1.9806 63.3217 2.12663L64.5617 5.93996H68.5617C68.7203 5.93397 68.8765 5.98006 69.0064 6.07119C69.1363 6.16232 69.2329 6.29348 69.2812 6.44464C69.3296 6.5958 69.3272 6.75863 69.2743 6.90827C69.2214 7.0579 69.121 7.18611 68.9884 7.2733L65.7417 9.62663L66.9817 13.4466C67.0307 13.5921 67.032 13.7495 66.9852 13.8958C66.9385 14.042 66.8462 14.1695 66.7218 14.2596C66.5975 14.3497 66.4476 14.3977 66.2941 14.3966C66.1405 14.3954 65.9913 14.3452 65.8684 14.2533L62.615 11.8733L59.3684 14.2333C59.2454 14.3252 59.0962 14.3754 58.9426 14.3766C58.7891 14.3777 58.6392 14.3297 58.5149 14.2396C58.3905 14.1495 58.2982 14.022 58.2515 13.8758C58.2047 13.7295 58.206 13.5721 58.255 13.4266L59.495 9.60663L56.2484 7.2533C56.1157 7.16611 56.0153 7.0379 55.9624 6.88827C55.9095 6.73863 55.9071 6.5758 55.9555 6.42464C56.0038 6.27348 56.1004 6.14232 56.2303 6.05119C56.3602 5.96006 56.5164 5.91397 56.675 5.91996H60.675L61.9484 2.12663Z" stroke="#D1D1D1" stroke-linecap="round" stroke-linejoin="round"/>
<path fill-rule="evenodd" clip-rule="evenodd" d="M79.9484 2.12663C79.9944 1.9806 80.0858 1.85306 80.2093 1.76252C80.3328 1.67198 80.4819 1.62317 80.635 1.62317C80.7881 1.62317 80.9373 1.67198 81.0607 1.76252C81.1842 1.85306 81.2756 1.9806 81.3217 2.12663L82.5617 5.93996H86.5617C86.7203 5.93397 86.8765 5.98006 87.0064 6.07119C87.1363 6.16232 87.2329 6.29348 87.2812 6.44464C87.3296 6.5958 87.3272 6.75863 87.2743 6.90827C87.2214 7.0579 87.121 7.18611 86.9884 7.2733L83.7417 9.62663L84.9817 13.4466C85.0307 13.5921 85.032 13.7495 84.9852 13.8958C84.9385 14.042 84.8462 14.1695 84.7218 14.2596C84.5975 14.3497 84.4476 14.3977 84.2941 14.3966C84.1405 14.3954 83.9913 14.3452 83.8684 14.2533L80.615 11.8733L77.3684 14.2333C77.2454 14.3252 77.0962 14.3754 76.9426 14.3766C76.7891 14.3777 76.6392 14.3297 76.5149 14.2396C76.3905 14.1495 76.2982 14.022 76.2515 13.8758C76.2047 13.7295 76.206 13.5721 76.255 13.4266L77.495 9.60663L74.2484 7.2533C74.1157 7.16611 74.0153 7.0379 73.9624 6.88827C73.9095 6.73863 73.9071 6.5758 73.9555 6.42464C74.0038 6.27348 74.1004 6.14232 74.2303 6.05119C74.3602 5.96006 74.5164 5.91397 74.675 5.91996H78.675L79.9484 2.12663Z" stroke="#D1D1D1" stroke-linecap="round" stroke-linejoin="round"/>
</g>
<defs>
<clipPath id="clip0_5594_39277">
<rect width="88" height="16" fill="white" transform="translate(0.615234)"/>
</clipPath>
</defs>
</svg>

<svg width="89" height="16" fill="none" xmlns="http://www.w3.org/2000/svg"><g clip-path="url(#a)" clip-rule="evenodd"><path fill-rule="evenodd" d="M7.948 2.127a.72.72 0 0 1 1.374 0l1.24 3.813h4a.727.727 0 0 1 .426 1.333l-3.246 2.354 1.24 3.82a.72.72 0 0 1-1.114.806l-3.253-2.38-3.247 2.36a.72.72 0 0 1-1.113-.806l1.24-3.82-3.247-2.354a.727.727 0 0 1 .427-1.333h4l1.273-3.793Z" fill="#FDBC15"/><path d="M25.948 2.127a.72.72 0 0 1 1.374 0l1.24 3.813h4a.727.727 0 0 1 .426 1.333l-3.246 2.354 1.24 3.82a.72.72 0 0 1-1.114.806l-3.253-2.38-3.247 2.36a.72.72 0 0 1-1.113-.806l1.24-3.82-3.247-2.354a.726.726 0 0 1 .427-1.333h4l1.273-3.793ZM43.948 2.127a.72.72 0 0 1 1.374 0l1.24 3.813h4a.727.727 0 0 1 .426 1.333l-3.246 2.354 1.24 3.82a.72.72 0 0 1-1.114.806l-3.253-2.38-3.247 2.36a.72.72 0 0 1-1.113-.806l1.24-3.82-3.247-2.354a.726.726 0 0 1 .427-1.333h4l1.273-3.793ZM61.948 2.127a.72.72 0 0 1 1.374 0l1.24 3.813h4a.727.727 0 0 1 .426 1.333l-3.246 2.354 1.24 3.82a.72.72 0 0 1-1.114.806l-3.253-2.38-3.247 2.36a.72.72 0 0 1-1.113-.806l1.24-3.82-3.247-2.354a.726.726 0 0 1 .427-1.333h4l1.273-3.793ZM79.948 2.127a.72.72 0 0 1 1.374 0l1.24 3.813h4a.727.727 0 0 1 .426 1.333l-3.246 2.354 1.24 3.82a.72.72 0 0 1-1.114.806l-3.253-2.38-3.247 2.36a.72.72 0 0 1-1.113-.806l1.24-3.82-3.247-2.354a.726.726 0 0 1 .427-1.333h4l1.273-3.793Z" stroke="#D1D1D1" stroke-linecap="round" stroke-linejoin="round"/></g><defs><clipPath id="a"><path fill="#fff" transform="translate(.615)" d="M0 0h88v16H0z"/></clipPath></defs></svg>
